X:1
T:At the Cross
T:At the Cross
T:Arr. by Ralph E. Hudson, ca. 1885
T:Isaac Watts, 1707
T:Public Domain Courtesy of the Cyber Hymnal™
T:Public Domain Courtesy of the Cyber Hymnal™
C:Arr. by Ralph E. Hudson, ca. 1885
Z:Public Domain
Z:Courtesy of the Cyber Hymnal™
%%score ( 1 2 ) ( 3 4 )
L:1/8
Q:1/4=115
M:4/4
K:Eb
V:1 treble 
V:2 treble 
V:3 bass 
V:4 bass 
V:1
 E2 | [EG]3 [EF] E2 [EG]2 | [GB]3 [FA] [EG]2 [EB]2 | [Ec]2 [EB]2 [DA]2 [EG]2 | [DF]6 E2 | %5
w: 1.~A-|las! and did my|Sav- ior bleed And|did my Sov- ereign|die? Would|
w: 2.~Was|it for crimes that|I had done He|groaned up- on the|tree? A-|
w: 3.~Well|might the sun in|dark- ness hide And|shut his glor- ies|in, When|
w: 4.~Thus|might I hide my|blush- ing face While|His dear cross ap-|pears, Dis-|
w: 5.~But|drops of grief can|ne’er re- pay The|debt of love I|owe: Here,|
 [EG]3 [EF] E2 [EG]2 | [GB]3 [Ac] [GB]2 E2 | [CF]2 [FA]2 [EG]2 [DF]2 | E6 ||"^Refrain" E>[EF] | %10
w: He de- vote that|sac- red head For|sin- ners such as|I?||
w: maz- ing pi- ty!|grace un- known! And|love be- yond de-|gree!||
w: Christ, the might- y|Mak- er died, For|man the crea- ture’s|sin.|At the|
w: solve my heart in|thank- ful- ness, And|melt my eyes to|tears.||
w: Lord, I give my|self a- way ’Tis|all that I can|do.||
 [EG]2 [EG]>[EG] [EG]2 [EA][EG] | ([EG][DF]) [DF]>E [DF]2 [DF][EG] | %12
w: ||
w: ||
w: cross, at the cross where I|first * saw the light, And the|
w: ||
w: ||
 [FA][FA][FA][FA] [FA]2 [GB]>[FA] | [EG]6 [EG][EG] | [EA]2 [EA]2 C2 [EA][FA] | %15
w: |||
w: |||
w: bur- den of my heart rolled a-|way, It was|there by faith I re-|
w: |||
w: |||
 [EG]2 (GF) E2 [EG]2 | [CF]2 [CF][CE] [B,D][DA] [DG]>[DF] | E6 |] %18
w: |||
w: |||
w: ceived my * sight, And|now I am hap- py all the|day!|
w: |||
w: |||
V:2
 E2 | x4 E2 x2 | x8 | x8 | x6 E2 | x4 E2 x2 | x6 E2 | x8 | E6 || E3/2 x/ | x8 | x7/2 E/ x4 | x8 | %13
 x8 | x4 C2 x2 | x2 E2 E2 x2 | x8 | E6 |] %18
V:3
 [E,G,]2 | [E,B,]3 [E,A,] [E,G,]2 [E,B,]2 | [E,E]3 [E,B,] [E,B,]2 [G,E]2 | %3
 [A,E]2 [G,E]2 [F,B,]2 [E,B,]2 | [B,,B,]6 [E,G,]2 | [E,B,]3 [E,A,] [E,G,]2 [E,B,]2 | %6
 [E,E]3 [E,E] [E,E]2 [E,G,]2 | [A,,A,]2 [A,,C]2 [B,,B,]2 [B,,A,]2 | [E,G,]6 || [E,G,]>[E,A,] | %10
 [E,B,]2 [E,B,]>[E,B,] [E,B,]2 [E,C][E,B,] | [B,,B,]2 [B,,B,]>[B,,G,] [B,,B,]2 [B,,B,][B,,B,] | %12
 [B,,F][B,,E][B,,D][B,,C] [B,,B,]2 [B,,E]>[B,,B,] | [E,B,]6 [E,B,][E,B,] | C2 C2 A,2 [C,C][D,B,] | %15
 [E,B,]2 (B,A,) [E,G,]2 [E,B,]2 | [A,,A,]2 [A,,A,][A,,G,] [B,,F,][B,,C] [B,,B,]>[B,,A,] | %17
 [E,G,]6 |] %18
V:4
 x2 | x8 | x8 | x8 | x8 | x8 | x8 | x8 | x6 || x2 | x8 | x8 | x8 | x8 | %14
 (A,,B,,) (C,B,,) (A,,B,,) x2 | x2 E,2 x4 | x8 | x6 |] %18

